Suru++-Ubuntu/apps/symbolic/minuet-symbolic.svg

<svg width="16.015" height="16.079" version="1.1" xmlns="http://www.w3.org/2000/svg">
 <path d="m0.5 0.578125v0.5 0.5 14h15v-15h-14-1zm1 1h2.5v0.0449219 8.4550781h0.5v4.5h-3v-13zm4.5 0h4v0.0449219 8.4550781h0.5v4.5h-5v-4.5h0.5v-8.5zm6 0h2.5v13h-3v-4.5h0.5v-8.5z" style="fill:#808080"/>
</svg>

<svg xmlns="http://www.w3.org/2000/svg" width="16.015" height="16.079" version="1.1">
 <g>
  <path style="fill:#808080" d="M 0.5 0.578125 L 0.5 1.078125 L 0.5 1.578125 L 0.5 15.578125 L 15.5 15.578125 L 15.5 0.578125 L 1.5 0.578125 L 0.5 0.578125 z M 1.5 1.578125 L 4 1.578125 L 4 1.6230469 L 4 10.078125 L 4.5 10.078125 L 4.5 14.578125 L 1.5 14.578125 L 1.5 1.578125 z M 6 1.578125 L 10 1.578125 L 10 1.6230469 L 10 10.078125 L 10.5 10.078125 L 10.5 14.578125 L 5.5 14.578125 L 5.5 10.078125 L 6 10.078125 L 6 1.578125 z M 12 1.578125 L 14.5 1.578125 L 14.5 14.578125 L 11.5 14.578125 L 11.5 10.078125 L 12 10.078125 L 12 1.578125 z"/>
 </g>
</svg>
